X: 27033
T: Miss Graham
R: reel
M: 4/4
K: Dmajor
D/D/D AF A2 FA|BdAB AFEF|D/D/D AF A2 FA|BdAF E/E/E EA:|
dfef {e}d2 AB|{Bcd}d2 Ad fede|faef d2 Ad|BdAF E/E/E EA|
dfef d2 AB|d2 Ad fede|faef defd|AFdF E2||
"Variation on the last phrase of the B part."
faef deBd|ABdF E/E/E E2||

